modules/hawcons-stroke/icons/folder.svg

<?xml version="1.0" encoding="UTF-8" standalone="no"?>
<svg width="32px" height="32px" viewBox="0 0 32 32" version="1.1" xmlns="http://www.w3.org/2000/svg" xmlns:xlink="http://www.w3.org/1999/xlink" xmlns:sketch="http://www.bohemiancoding.com/sketch/ns">
    <!-- Generator: Sketch 3.0.3 (7891) - http://www.bohemiancoding.com/sketch -->
    <title>icon 95 folder</title>
    <desc>Created with Sketch.</desc>
    <defs></defs>
    <g id="Page-1" stroke="none" stroke-width="1" fill="none" fill-rule="evenodd" sketch:type="MSPage">
        <g id="icon-95-folder" sketch:type="MSArtboardGroup" fill="#929292">
            <path d="M3,13 L3,6.99180311 C3,6.45530558 3.44401481,6 3.99173483,6 L14.4000244,6 L16.3599854,10 L28.9970172,10 C29.5461723,10 30,10.4481055 30,11.0008717 L30,13 L3,13 L3,13 Z M3,14 L3,25.0081969 C3,25.5559546 3.44610862,26 3.99296544,26 L29.0070346,26 C29.5554342,26 30,25.5553691 30,24.9991283 L30,14 L3,14 L3,14 Z M17,9 L15,5 L4.00276013,5 C2.89666625,5 2,5.88967395 2,6.991155 L2,25.008845 C2,26.1085295 2.89971268,27 3.99328744,27 L29.0067126,27 C30.1075748,27 31,26.1073772 31,25.0049107 L31,10.9950893 C31,9.8932319 30.1029399,9 28.9941413,9 L17,9 L17,9 Z" id="folder" sketch:type="MSShapeGroup"></path>
        </g>
    </g>
</svg>

<svg width="32" height="32" viewBox="0 0 32 32" xmlns="http://www.w3.org/2000/svg"><path d="M3 13V6.992A1 1 0 0 1 3.992 6H14.4l1.96 4h12.637c.55 0 1.003.448 1.003 1v2H3zm0 1v11.008c0 .548.446.992.993.992h25.014A.995.995 0 0 0 30 25V14H3zm14-5l-2-4H4.003C2.897 5 2 5.89 2 6.991V25.01C2 26.109 2.9 27 3.993 27h25.014c1.1 0 1.993-.893 1.993-1.995v-14.01A2 2 0 0 0 28.994 9H17z" fill="#929292" fill-rule="evenodd"/></svg>
